resources/images/buttonIcon.svg

<svg width="19" height="16" viewBox="0 0 19 16" fill="none" xmlns="http://www.w3.org/2000/svg">
<path d="M16.1603 1.98647V7.0807C15.8004 4.05215 13.6804 1.53848 10.8086 0.505198V7.08334C10.3352 3.0972 6.8141 0 2.53846 0H0V16H2.53846C6.81319 16 10.3352 12.9028 10.8077 8.9149V15.493C13.6795 14.4598 15.7995 11.9461 16.1593 8.91754V14.0127C17.8984 12.5463 18.9991 10.3979 18.9991 7.99956C18.9991 5.60119 17.8984 3.45278 16.1593 1.98647H16.1603Z"/>
</svg>

<svg xmlns="http://www.w3.org/2000/svg" width="19" height="16"><path d="M16.16 1.99v5.09C15.8 4.05 13.68 1.54 10.81.5v6.58C10.34 3.1 6.81 0 2.54 0H0v16h2.54c4.27 0 7.8-3.1 8.27-7.09v6.58c2.87-1.03 4.99-3.55 5.35-6.58v5.1C17.9 12.54 19 10.4 19 8s-1.1-4.55-2.84-6.01m0 5.08"/></svg>
